resources/haticons/SVG/museum.svg

<!-- Generated by IcoMoon.io -->
<svg version="1.1" xmlns="http://www.w3.org/2000/svg" width="24" height="24" viewBox="0 0 24 24">
<title>museum</title>
<path d="M15.984 18v-6.984h-1.969l-2.016 3-2.016-3h-1.969v6.984h1.969v-3.984l2.016 3 2.016-3v3.984h1.969zM21.984 11.016h-1.969v9h1.969v1.969h-19.969v-1.969h1.969v-9h-1.969v-2.016l9.984-6.984 9.984 6.984v2.016z"></path>
</svg>

<svg xmlns="http://www.w3.org/2000/svg" width="24" height="24"><path d="M15.984 18v-6.984h-1.969l-2.016 3-2.016-3H8.014V18h1.969v-3.984l2.016 3 2.016-3V18h1.969zm6-6.984h-1.969v9h1.969v1.969H2.015v-1.969h1.969v-9H2.015V9l9.984-6.984L21.983 9v2.016z"/></svg>
